journy/img/media/mashable.svg

<svg fill="none" height="20" viewBox="0 0 117 20" width="117" xmlns="http://www.w3.org/2000/svg"><g clip-rule="evenodd" fill="#122842" fill-rule="evenodd"><path d="m17.2127 19.6229v-12.97574l-4.9411 12.97574h-2.2371l-4.97268-12.97574v12.97574h-5.06182v-19.6229h7.03344l4.11956 10.8278 4.0881-10.8278h7.0335v19.6229z"/><path d="m32.3323 15.9739v-1.2635c-.4708-.676-1.529-1.0019-2.5309-1.0019-1.1749 0-2.2654.5312-2.2654 1.6497 0 1.1186 1.0905 1.6457 2.2654 1.6457 1.0019 0 2.0601-.35 2.5309-1.03zm0 3.6488v-1.4116c-.8812 1.0582-2.5913 1.7664-4.414 1.7664-2.1768 0-4.8841-1.5015-4.8841-4.6796 0-3.4403 2.7073-4.5911 4.8841-4.5911 1.8831 0 3.561.6197 4.414 1.6779v-1.4123c0-1.23527-1.0582-2.08762-2.885-2.08762-1.4123 0-2.8246.55929-3.9714 1.52832l-1.6779-3.14585c1.8274-1.56187 4.2692-2.20499 6.446-2.20499 3.4121 0 6.619 1.26277 6.619 5.67674v8.8837z"/><path d="m37.1855 17.7695 1.8831-3.2343c1.0583.9415 3.3236 1.9105 5.0015 1.9105 1.3513 0 1.9106-.3815 1.9106-1.0019 0-1.7623-8.264.0611-8.264-5.7049 0-2.50275 2.1768-4.67957 6.0878-4.67957 2.4136 0 4.4134.76517 5.9424 1.88309l-1.7342 3.20688c-.8531-.82485-2.4706-1.55716-4.1766-1.55716-1.0623 0-1.7658.41042-1.7658.96971 0 1.55715 8.2359-.06035 8.2359 5.76535 0 2.7079-2.382 4.6473-6.442 4.6473-2.5584 0-5.1778-.8523-6.6787-2.205z"/><path d="m60.5133 19.6229v-8.268c0-1.73422-.9134-2.29351-2.3539-2.29351-1.3238 0-2.205.73633-2.7361 1.38351v9.178h-4.5307v-19.6229h4.5307v7.15012c.853-1.0019 2.5309-2.0883 4.9129-2.0883 3.2351 0 4.7078 1.82274 4.7078 4.44217v10.11891z"/><path d="m74.9873 15.9739v-1.2635c-.4708-.676-1.529-1.0019-2.531-1.0019-1.1749 0-2.2653.5312-2.2653 1.6497 0 1.1186 1.0904 1.6457 2.2653 1.6457 1.002 0 2.0602-.35 2.531-1.03zm0 3.6488v-1.4116c-.8812 1.0582-2.5913 1.7664-4.414 1.7664-2.1769 0-4.8848-1.5015-4.8848-4.6796 0-3.4403 2.7079-4.5911 4.8848-4.5911 1.8831 0 3.5609.6197 4.414 1.6779v-1.4123c0-1.23527-1.0583-2.08762-2.885-2.08762-1.4124 0-2.8247.55929-3.9714 1.52832l-1.6779-3.14585c1.8267-1.56187 4.2691-2.20499 6.446-2.20499 3.4121 0 6.6183 1.26277 6.6183 5.67674v8.8837z"/><path d="m88.3132 15.9737c1.7945 0 3.1465-1.3238 3.1465-3.4684 0-2.1205-1.352-3.44428-3.1465-3.44428-.9697 0-2.1487.53113-2.708 1.29568v4.3536c.5593.7645 1.7383 1.2634 2.708 1.2634zm-7.238 3.6489v-19.62229482h4.53v7.08977482c1.1186-1.413 2.6476-2.02795 4.2088-2.02795 3.5603 0 6.2649 2.79245 6.2649 7.44317 0 4.8238-2.7643 7.472-6.2649 7.472-1.5893 0-3.0298-.6478-4.2088-1.9997v1.645z"/><path d="m96.7256 19.6239h4.5304v-19.62292344h-4.5304z"/><path d="m109.434 8.70901c-1.972 0-2.736 1.17492-2.913 2.20499h5.854c-.117-1.0019-.853-2.20499-2.941-2.20499zm-7.533 3.79439c0-4.12031 3.091-7.44322 7.533-7.44322 4.208 0 7.266 3.08954 7.266 7.91392v1.0301h-10.119c.322 1.2628 1.501 2.325 3.557 2.325 1.001 0 2.651-.4419 3.472-1.2071l1.971 2.9695c-1.411 1.2682-3.765 1.8838-5.942 1.8838-4.382 0-7.738-2.8528-7.738-7.472z"/></g></svg>

<svg width="117" height="20" viewBox="0 0 117 20" fill="none" xmlns="http://www.w3.org/2000/svg">
<path fill-rule="evenodd" clip-rule="evenodd" d="M17.2127 19.6229V6.64716L12.2716 19.6229H10.0345L5.06182 6.64716V19.6229H0V0H7.03344L11.153 10.8278L15.2411 0H22.2746V19.6229H17.2127Z" fill="#122842"/>
<path fill-rule="evenodd" clip-rule="evenodd" d="M32.3323 15.9739V14.7104C31.8615 14.0344 30.8033 13.7085 29.8014 13.7085C28.6265 13.7085 27.536 14.2397 27.536 15.3582C27.536 16.4768 28.6265 17.0039 29.8014 17.0039C30.8033 17.0039 31.8615 16.6539 32.3323 15.9739ZM32.3323 19.6227V18.2111C31.4511 19.2693 29.741 19.9775 27.9183 19.9775C25.7415 19.9775 23.0342 18.476 23.0342 15.2979C23.0342 11.8576 25.7415 10.7068 27.9183 10.7068C29.8014 10.7068 31.4793 11.3265 32.3323 12.3847V10.9724C32.3323 9.73713 31.2741 8.88478 29.4473 8.88478C28.035 8.88478 26.6227 9.44407 25.4759 10.4131L23.798 7.26725C25.6254 5.70538 28.0672 5.06226 30.244 5.06226C33.6561 5.06226 36.863 6.32503 36.863 10.739V19.6227H32.3323Z" fill="#122842"/>
<path fill-rule="evenodd" clip-rule="evenodd" d="M37.1855 17.7695L39.0686 14.5352C40.1269 15.4767 42.3922 16.4457 44.0701 16.4457C45.4214 16.4457 45.9807 16.0642 45.9807 15.4438C45.9807 13.6815 37.7167 15.5049 37.7167 9.7389C37.7167 7.23615 39.8935 5.05933 43.8045 5.05933C46.2181 5.05933 48.2179 5.8245 49.7469 6.94242L48.0127 10.1493C47.1596 9.32445 45.5421 8.59214 43.8361 8.59214C42.7738 8.59214 42.0703 9.00256 42.0703 9.56185C42.0703 11.119 50.3062 9.5015 50.3062 15.3272C50.3062 18.0351 47.9242 19.9745 43.8642 19.9745C41.3058 19.9745 38.6864 19.1222 37.1855 17.7695Z" fill="#122842"/>
<path fill-rule="evenodd" clip-rule="evenodd" d="M60.5133 19.6229V11.3549C60.5133 9.62068 59.5999 9.06139 58.1594 9.06139C56.8356 9.06139 55.9544 9.79772 55.4233 10.4449V19.6229H50.8926V0H55.4233V7.15012C56.2763 6.14822 57.9542 5.06182 60.3362 5.06182C63.5713 5.06182 65.044 6.88456 65.044 9.50399V19.6229H60.5133Z" fill="#122842"/>
<path fill-rule="evenodd" clip-rule="evenodd" d="M74.9873 15.9739V14.7104C74.5165 14.0344 73.4583 13.7085 72.4563 13.7085C71.2814 13.7085 70.191 14.2397 70.191 15.3582C70.191 16.4768 71.2814 17.0039 72.4563 17.0039C73.4583 17.0039 74.5165 16.6539 74.9873 15.9739ZM74.9873 19.6227V18.2111C74.1061 19.2693 72.396 19.9775 70.5733 19.9775C68.3964 19.9775 65.6885 18.476 65.6885 15.2979C65.6885 11.8576 68.3964 10.7068 70.5733 10.7068C72.4564 10.7068 74.1342 11.3265 74.9873 12.3847V10.9724C74.9873 9.73713 73.929 8.88478 72.1023 8.88478C70.6899 8.88478 69.2776 9.44407 68.1309 10.4131L66.453 7.26725C68.2797 5.70538 70.7221 5.06226 72.899 5.06226C76.3111 5.06226 79.5173 6.32503 79.5173 10.739V19.6227H74.9873Z" fill="#122842"/>
<path fill-rule="evenodd" clip-rule="evenodd" d="M88.3132 15.9737C90.1077 15.9737 91.4597 14.6499 91.4597 12.5053C91.4597 10.3848 90.1077 9.06102 88.3132 9.06102C87.3435 9.06102 86.1645 9.59215 85.6052 10.3567V14.7103C86.1645 15.4748 87.3435 15.9737 88.3132 15.9737ZM81.0752 19.6226V0.000305176H85.6052V7.09008C86.7238 5.67708 88.2528 5.06213 89.814 5.06213C93.3743 5.06213 96.0789 7.85458 96.0789 12.5053C96.0789 17.3291 93.3146 19.9773 89.814 19.9773C88.2247 19.9773 86.7842 19.3295 85.6052 17.9776V19.6226H81.0752Z" fill="#122842"/>
<path fill-rule="evenodd" clip-rule="evenodd" d="M96.7256 19.6239H101.256V0.000976562H96.7256V19.6239Z" fill="#122842"/>
<path fill-rule="evenodd" clip-rule="evenodd" d="M109.434 8.70901C107.462 8.70901 106.698 9.88393 106.521 10.914H112.375C112.258 9.9121 111.522 8.70901 109.434 8.70901ZM101.901 12.5034C101.901 8.38309 104.992 5.06018 109.434 5.06018C113.642 5.06018 116.7 8.14972 116.7 12.9741V14.0042H106.581C106.903 15.267 108.082 16.3292 110.138 16.3292C111.139 16.3292 112.789 15.8873 113.61 15.1221L115.581 18.0916C114.17 19.3598 111.816 19.9754 109.639 19.9754C105.257 19.9754 101.901 17.1226 101.901 12.5034Z" fill="#122842"/>
</svg>
